Dominus_Dark_Funeral/scalable/apps/git.svg

<?xml version="1.0" encoding="UTF-8" standalone="no"?><svg xmlns:dc="http://purl.org/dc/elements/1.1/" xmlns:cc="http://creativecommons.org/ns#" xmlns:rdf="http://www.w3.org/1999/02/22-rdf-syntax-ns#" xmlns="http://www.w3.org/2000/svg" xmlns:xlink="http://www.w3.org/1999/xlink" width="48" height="48" viewBox="0 0 12.7 12.7"><metadata><rdf:RDF><cc:Work><dc:format>image/svg+xml</dc:format><dc:type rdf:resource="http://purl.org/dc/dcmitype/StillImage"/><dc:title/></cc:Work></rdf:RDF></metadata><defs><linearGradient id="d"><stop offset="0"/><stop offset="1" stop-opacity="0"/></linearGradient><linearGradient id="c"><stop offset="0"/><stop offset="1" stop-opacity="0"/></linearGradient><linearGradient id="a"><stop offset="0"/><stop offset="1" stop-opacity="0"/></linearGradient><linearGradient id="b"><stop offset="0" stop-color="#515151"/><stop offset=".2" stop-color="#2b2b2b"/><stop offset=".53" stop-color="#1b1b1b"/><stop offset="1"/></linearGradient><linearGradient xlink:href="#d" id="f" gradientUnits="userSpaceOnUse" x1="3.29" y1="5.84" x2="11.97" y2="7.81"/><linearGradient gradientTransform="scale(.26458)" id="e" x1="2.65" x2="42.95" y1="18.09" y2="4.95" gradientUnits="userSpaceOnUse"><stop stop-color="#ff2a2a" offset="0"/><stop stop-color="#f55" offset=".1"/><stop stop-color="#ff4242" offset=".3"/><stop stop-color="#ff3636" offset=".42"/><stop stop-color="#ff2a2a" offset=".54"/><stop stop-color="#ff2a2a" offset=".67"/><stop stop-color="#c83737" offset="1"/></linearGradient></defs><path d="M6.35.1C4.81.1 3.57.38 2.66.96a3.67 3.67 0 0 0-1.65 3.25c0 1.91 1.53 4.47 2 5.2a14.41 14.41 0 0 0 1.65 2.16c.68.7 1.21 1.03 1.69 1.03s1.01-.33 1.69-1.03c.52-.55 1.11-1.31 1.65-2.16.47-.73 2-3.29 2-5.2 0-1.42-.57-2.55-1.65-3.25A6.76 6.76 0 0 0 6.35.1z" fill="url(#e)"/><path d="M3.11.73c-.17.07-.3.16-.45.25l2.87 2.87c-.04.1-.08.2-.08.31 0 .33.21.6.5.71v3.61a.75.75 0 1 0 .5 0v-3.6l.07-.04L8.3 6.61l.01-.02a.74.74 0 0 0 .67 1.1.75.75 0 1 0 0-1.52.74.74 0 0 0-.34.1l.02-.02-1.77-1.77c.05-.1.08-.2.08-.32a.75.75 0 0 0-.75-.75.74.74 0 0 0-.32.08z" style="text-indent:0;text-decoration-line:none;text-transform:none" color="#000" fill="#1a1a1a" opacity=".68"/><path d="M7.88 11.7l.16-.13a15.2 15.2 0 0 0 2.75-4.17L6.9 3.52l-.56.66.02 1.53v3.41l-.5.55z" opacity=".5" fill="url(#f)"/><path d="M3.28.65c-.17.07-.3.14-.46.23l2.86 2.85c-.05.1-.08.2-.08.31 0 .33.21.6.5.71v3.61a.75.75 0 1 0 .5 0V4.75c.03 0 .05-.02.07-.03l1.76 1.77.02-.02a.74.74 0 0 0 .67 1.1.75.75 0 1 0 0-1.52.74.74 0 0 0-.34.09l.01-.02-1.76-1.76c.04-.1.08-.2.08-.32a.75.75 0 0 0-.76-.75.74.74 0 0 0-.31.08z" style="text-indent:0;text-decoration-line:none;text-transform:none" color="#000" fill="#ffd5d5"/><path d="M6.35.1C4.81.1 3.57.39 2.66.97A3.67 3.67 0 0 0 1 4.22c0 1.91 1.54 4.47 2.01 5.2.54.85 1.13 1.61 1.65 2.16.68.7 1.21 1.03 1.69 1.03s1.01-.33 1.69-1.03a15.2 15.2 0 0 0 1.65-2.15c.47-.74 2-3.3 2-5.21 0-1.42-.57-2.54-1.65-3.25A6.75 6.75 0 0 0 6.35.09zm0 .03C6.91.15 7.44.2 7.9.31a5.82 5.82 0 0 1 1.6.66 3.65 3.65 0 0 1 1.24 1.36c.14.27.25.57.32.88a4.61 4.61 0 0 1-.14 2.53c-.15.52-.36 1.04-.58 1.52-.44.97-.95 1.8-1.18 2.17a15.2 15.2 0 0 1-1.65 2.15 4.9 4.9 0 0 1-.92.78.96.96 0 0 1-.24.1.96.96 0 0 1-.24-.1 4.76 4.76 0 0 1-.92-.78 14.41 14.41 0 0 1-1.65-2.15 19.2 19.2 0 0 1-1.18-2.17c-.22-.48-.43-1-.58-1.52a4.6 4.6 0 0 1-.14-2.52 3.73 3.73 0 0 1 .84-1.64 3.65 3.65 0 0 1 1.45-1A6.83 6.83 0 0 1 6.35.13z" opacity=".2"/></svg>

<?xml version="1.0" encoding="UTF-8" standalone="no"?>
<svg
   xmlns:dc="http://purl.org/dc/elements/1.1/"
   xmlns:cc="http://creativecommons.org/ns#"
   xmlns:rdf="http://www.w3.org/1999/02/22-rdf-syntax-ns#"
   xmlns:svg="http://www.w3.org/2000/svg"
   xmlns="http://www.w3.org/2000/svg"
   xmlns:xlink="http://www.w3.org/1999/xlink"
   xmlns:sodipodi="http://sodipodi.sourceforge.net/DTD/sodipodi-0.dtd"
   xmlns:inkscape="http://www.inkscape.org/namespaces/inkscape"
   width="48"
   height="48"
   viewBox="0 0 12.7 12.7"
   version="1.1"
   id="svg56"
   sodipodi:docname="git.svg"
   inkscape:version="0.92.4 (5da689c313, 2019-01-14)">
  <sodipodi:namedview
     pagecolor="#ffffff"
     bordercolor="#666666"
     borderopacity="1"
     objecttolerance="10"
     gridtolerance="10"
     guidetolerance="10"
     inkscape:pageopacity="0"
     inkscape:pageshadow="2"
     inkscape:window-width="1112"
     inkscape:window-height="480"
     id="namedview58"
     showgrid="false"
     inkscape:zoom="4.9166667"
     inkscape:cx="2.1355932"
     inkscape:cy="24"
     inkscape:window-x="0"
     inkscape:window-y="25"
     inkscape:window-maximized="0"
     inkscape:current-layer="svg56" />
  <metadata
     id="metadata2">
    <rdf:RDF>
      <cc:Work>
        <dc:format>image/svg+xml</dc:format>
        <dc:type
           rdf:resource="http://purl.org/dc/dcmitype/StillImage" />
        <dc:title></dc:title>
      </cc:Work>
    </rdf:RDF>
  </metadata>
  <defs
     id="defs44">
    <linearGradient
       id="d">
      <stop
         offset="0"
         id="stop4" />
      <stop
         offset="1"
         stop-opacity="0"
         id="stop6" />
    </linearGradient>
    <linearGradient
       id="c">
      <stop
         offset="0"
         id="stop9" />
      <stop
         offset="1"
         stop-opacity="0"
         id="stop11" />
    </linearGradient>
    <linearGradient
       id="a">
      <stop
         offset="0"
         id="stop14" />
      <stop
         offset="1"
         stop-opacity="0"
         id="stop16" />
    </linearGradient>
    <linearGradient
       id="b">
      <stop
         offset="0"
         stop-color="#515151"
         id="stop19" />
      <stop
         offset=".2"
         stop-color="#2b2b2b"
         id="stop21" />
      <stop
         offset=".53"
         stop-color="#1b1b1b"
         id="stop23" />
      <stop
         offset="1"
         id="stop25" />
    </linearGradient>
    <linearGradient
       xlink:href="#d"
       id="f"
       gradientUnits="userSpaceOnUse"
       x1="3.29"
       y1="5.84"
       x2="11.97"
       y2="7.81" />
    <linearGradient
       gradientTransform="scale(0.26458)"
       id="e"
       x1="2.65"
       x2="42.95"
       y1="18.09"
       y2="4.95"
       gradientUnits="userSpaceOnUse">
      <stop
         stop-color="#ff2a2a"
         offset="0"
         id="stop29" />
      <stop
         stop-color="#f55"
         offset=".1"
         id="stop31" />
      <stop
         stop-color="#ff4242"
         offset=".3"
         id="stop33" />
      <stop
         stop-color="#ff3636"
         offset=".42"
         id="stop35" />
      <stop
         stop-color="#ff2a2a"
         offset=".54"
         id="stop37" />
      <stop
         stop-color="#ff2a2a"
         offset=".67"
         id="stop39" />
      <stop
         stop-color="#c83737"
         offset="1"
         id="stop41" />
    </linearGradient>
  </defs>
  <path
     d="M 6.35,0.1 C 4.81,0.1 3.57,0.38 2.66,0.96 A 3.67,3.67 0 0 0 1.01,4.21 c 0,1.91 1.53,4.47 2,5.2 a 14.41,14.41 0 0 0 1.65,2.16 c 0.68,0.7 1.21,1.03 1.69,1.03 0.48,0 1.01,-0.33 1.69,-1.03 0.52,-0.55 1.11,-1.31 1.65,-2.16 0.47,-0.73 2,-3.29 2,-5.2 0,-1.42 -0.57,-2.55 -1.65,-3.25 A 6.76,6.76 0 0 0 6.35,0.1 Z"
     id="path46"
     style="fill:url(#e)"
     inkscape:connector-curvature="0" />
  <path
     d="M 3.11,0.73 C 2.94,0.8 2.81,0.89 2.66,0.98 l 2.87,2.87 c -0.04,0.1 -0.08,0.2 -0.08,0.31 0,0.33 0.21,0.6 0.5,0.71 v 3.61 a 0.75,0.75 0 1 0 0.5,0 V 4.88 L 6.52,4.84 8.3,6.61 8.31,6.59 a 0.74,0.74 0 0 0 0.67,1.1 0.76,0.76 0 1 0 0,-1.52 0.74,0.74 0 0 0 -0.34,0.1 L 8.66,6.25 6.89,4.48 C 6.94,4.38 6.97,4.28 6.97,4.16 A 0.75,0.75 0 0 0 6.22,3.41 0.74,0.74 0 0 0 5.9,3.49 Z"
     style="color:#000000;text-indent:0;text-decoration:none;text-decoration-line:none;text-transform:none;opacity:0.6800001;fill:#1a1a1a"
     id="path48"
     inkscape:connector-curvature="0" />
  <path
     d="M 7.88,11.7 8.04,11.57 A 15.2,15.2 0 0 0 10.79,7.4 L 6.9,3.52 6.34,4.18 6.36,5.71 v 3.41 l -0.5,0.55 z"
     id="path50"
     style="opacity:0.5;fill:url(#f)"
     inkscape:connector-curvature="0" />
  <path
     d="M 3.28,0.65 C 3.11,0.72 2.98,0.79 2.82,0.88 L 5.68,3.73 C 5.63,3.83 5.6,3.93 5.6,4.04 c 0,0.33 0.21,0.6 0.5,0.71 v 3.61 a 0.75,0.75 0 1 0 0.5,0 V 4.75 c 0.03,0 0.05,-0.02 0.07,-0.03 L 8.43,6.49 8.45,6.47 a 0.74,0.74 0 0 0 0.67,1.1 0.76,0.76 0 1 0 0,-1.52 0.74,0.74 0 0 0 -0.34,0.09 L 8.79,6.12 7.03,4.36 C 7.07,4.26 7.11,4.16 7.11,4.04 A 0.75,0.75 0 0 0 6.35,3.29 0.74,0.74 0 0 0 6.04,3.37 Z"
     style="color:#000000;text-indent:0;text-decoration:none;text-decoration-line:none;text-transform:none;fill:#ffd5d5"
     id="path52"
     inkscape:connector-curvature="0" />
  <path
     d="M 6.35,0.1 C 4.81,0.1 3.57,0.39 2.66,0.97 A 3.67,3.67 0 0 0 1,4.22 c 0,1.91 1.54,4.47 2.01,5.2 0.54,0.85 1.13,1.61 1.65,2.16 0.68,0.7 1.21,1.03 1.69,1.03 0.48,0 1.01,-0.33 1.69,-1.03 A 15.2,15.2 0 0 0 9.69,9.43 c 0.47,-0.74 2,-3.3 2,-5.21 0,-1.42 -0.57,-2.54 -1.65,-3.25 A 6.75,6.75 0 0 0 6.35,0.09 Z m 0,0.03 C 6.91,0.15 7.44,0.2 7.9,0.31 a 5.82,5.82 0 0 1 1.6,0.66 3.65,3.65 0 0 1 1.24,1.36 c 0.14,0.27 0.25,0.57 0.32,0.88 A 4.61,4.61 0 0 1 10.92,5.74 C 10.77,6.26 10.56,6.78 10.34,7.26 9.9,8.23 9.39,9.06 9.16,9.43 A 15.2,15.2 0 0 1 7.51,11.58 4.9,4.9 0 0 1 6.59,12.36 0.96,0.96 0 0 1 6.35,12.46 0.96,0.96 0 0 1 6.11,12.36 4.76,4.76 0 0 1 5.19,11.58 14.41,14.41 0 0 1 3.54,9.43 19.2,19.2 0 0 1 2.36,7.26 C 2.14,6.78 1.93,6.26 1.78,5.74 A 4.6,4.6 0 0 1 1.64,3.22 3.73,3.73 0 0 1 2.48,1.58 3.65,3.65 0 0 1 3.93,0.58 6.83,6.83 0 0 1 6.35,0.13 Z"
     id="path54"
     inkscape:connector-curvature="0"
     style="opacity:0.2" />
</svg>
